X:86
T: Alig várom, hogy a nap le nyugodjon
M:4/4
L:1/4
K:Eb
E D C G | G/F/C/E/ | D<C C z |
G/G/E/E/ F/F/G/A/ | B<G G z |
G/G/E/E/ F/F/G/A/ | B<G D z |
E D C G | G/F/C/E/ | D<C C z |

